dist/svgs/devui-icons/op/go-module.svg

<?xml version="1.0" encoding="UTF-8"?>
<svg width="16px" height="16px" viewBox="0 0 16 16" version="1.1" xmlns="http://www.w3.org/2000/svg" xmlns:xlink="http://www.w3.org/1999/xlink">
    <title>操作/module</title>
    <desc>Created with Sketch.</desc>
    <g id="操作/module" stroke="none" stroke-width="1" fill="none" fill-rule="evenodd">
        <path d="M2,1 L6,1 C6.55228475,1 7,1.44771525 7,2 L7,6 C7,6.55228475 6.55228475,7 6,7 L2,7 C1.44771525,7 1,6.55228475 1,6 L1,2 C1,1.44771525 1.44771525,1 2,1 Z M2,9 L6,9 C6.55228475,9 7,9.44771525 7,10 L7,14 C7,14.5522847 6.55228475,15 6,15 L2,15 C1.44771525,15 1,14.5522847 1,14 L1,10 C1,9.44771525 1.44771525,9 2,9 Z M12,1 C13.6568542,1 15,2.34314575 15,4 C15,5.65685425 13.6568542,7 12,7 C10.3431458,7 9,5.65685425 9,4 C9,2.34314575 10.3431458,1 12,1 Z M10,9 L14,9 C14.5522847,9 15,9.44771525 15,10 L15,14 C15,14.5522847 14.5522847,15 14,15 L10,15 C9.44771525,15 9,14.5522847 9,14 L9,10 C9,9.44771525 9.44771525,9 10,9 Z" id="形状" fill="#293040"></path>
    </g>
</svg>

<svg xmlns="http://www.w3.org/2000/svg" viewBox="0 0 16 16"><path fill-rule="evenodd" d="M2 1h4a1 1 0 011 1v4a1 1 0 01-1 1H2a1 1 0 01-1-1V2a1 1 0 011-1zm0 8h4a1 1 0 011 1v4a1 1 0 01-1 1H2a1 1 0 01-1-1v-4a1 1 0 011-1zm10-8a3 3 0 110 6 3 3 0 010-6zm-2 8h4a1 1 0 011 1v4a1 1 0 01-1 1h-4a1 1 0 01-1-1v-4a1 1 0 011-1z"/></svg>
